svg/black/via.svg

<svg height="32" viewBox="0 0 32 32" width="32" xmlns="http://www.w3.org/2000/svg"><path d="m11.1334795 14.296082.7507205 1.9597353-3.87380603-.0244921-.01039397 1.7185641 4.5441581.0287303 3.4558419 9.0213804 3.4391425-8.977787 4.5504635.0287702.010394-1.7185641-3.9040885-.0246835.770609-2.0116536h3.1282825v-1.718597h-2.4699355l1.8964868-4.95072661-1.5651206-.62675839-3.5611751 9.2963498-4.6012613-.0290914-3.550031-9.2672584-1.56512061.62675839 1.89648681 4.95072661h-2.46993551v1.718597zm3.2202758 3.6939788 3.2845344.0207664-1.6382897 4.2767101zm1.6462447 14.0099392c-8.836556 0-16-7.163444-16-16s7.163444-16 16-16 16 7.163444 16 16-7.163444 16-16 16z" fill-rule="evenodd"/></svg>

<svg height="32" width="32" xmlns="http://www.w3.org/2000/svg"><path d="M11.133 14.296l.751 1.96-3.874-.025L8 17.95l4.544.029L16 27l3.44-8.978 4.55.029.01-1.719-3.904-.024.77-2.012h3.129v-1.719h-2.47l1.896-4.95L21.856 7l-3.56 9.296-4.602-.029L10.144 7l-1.565.627 1.896 4.95h-2.47v1.72zm3.22 3.694l3.285.02L16 22.289zM16 32C7.163 32 0 24.837 0 16S7.163 0 16 0s16 7.163 16 16-7.163 16-16 16z" fill-rule="evenodd"/></svg>
